polaris-icons/icons/newicons/VolumeMinor.svg

<svg width="20" height="20" viewBox="0 0 20 20" fill="none" xmlns="http://www.w3.org/2000/svg">
<path fill-rule="evenodd" clip-rule="evenodd" d="M13.5 4.5V7.61406C13.5 8.19234 13.6671 8.7583 13.9813 9.24381L17.0029 13.9135C17.8639 15.2442 16.9087 17 15.3237 17H4.67629C3.09128 17 2.13609 15.2442 2.99715 13.9135L6.01871 9.24381C6.33287 8.7583 6.5 8.19234 6.5 7.61406V4.5H6C5.58579 4.5 5.25 4.16421 5.25 3.75C5.25 3.33579 5.58579 3 6 3H14C14.4142 3 14.75 3.33579 14.75 3.75C14.75 4.16421 14.4142 4.5 14 4.5H13.5ZM8 7.61406V4.5H12V7.25H11.25C10.8358 7.25 10.5 7.58579 10.5 8C10.5 8.41421 10.8358 8.75 11.25 8.75H12.1457C12.2662 9.21181 12.46 9.65389 12.7219 10.0587L12.8457 10.25L7.15428 10.25L7.27807 10.0587C7.7493 9.33042 8 8.48148 8 7.61406ZM6.18369 11.75L13.8163 11.75L15.7435 14.7284C15.9588 15.0611 15.72 15.5 15.3237 15.5H4.67629C4.28004 15.5 4.04124 15.0611 4.25651 14.7284L6.18369 11.75Z" fill="black"/>
</svg>

<svg viewBox="0 0 20 20" fill="none" xmlns="http://www.w3.org/2000/svg"><path fill-rule="evenodd" clip-rule="evenodd" d="M13.5 4.5v3.114a3 3 0 0 0 .481 1.63l3.022 4.67c.86 1.33-.094 3.086-1.68 3.086h-10.647c-1.585 0-2.54-1.756-1.679-3.086l3.022-4.67a3 3 0 0 0 .481-1.63v-3.114h-.5a.75.75 0 0 1 0-1.5h8a.75.75 0 0 1 0 1.5h-.5Zm-5.5 3.114v-3.114h4v2.75h-.75a.75.75 0 0 0 0 1.5h.896c.12.462.314.904.576 1.309l.124.191h-5.692l.124-.191a4.5 4.5 0 0 0 .722-2.445Zm-1.816 4.136h7.632l1.927 2.978a.5.5 0 0 1-.42.772h-10.647a.5.5 0 0 1-.42-.772l1.928-2.978Z" fill="#5C5F62"/></svg>
